Numix-Circle/48x48/apps/tixati.svg

<?xml version="1.0" encoding="UTF-8" standalone="no"?>
<svg
   xmlns:dc="http://purl.org/dc/elements/1.1/"
   xmlns:cc="http://creativecommons.org/ns#"
   xmlns:rdf="http://www.w3.org/1999/02/22-rdf-syntax-ns#"
   xmlns:svg="http://www.w3.org/2000/svg"
   xmlns="http://www.w3.org/2000/svg"
   xmlns:sodipodi="http://sodipodi.sourceforge.net/DTD/sodipodi-0.dtd"
   xmlns:inkscape="http://www.inkscape.org/namespaces/inkscape"
   viewBox="0 0 48 48"
   id="svg2"
   version="1.1"
   inkscape:version="0.91 r13725"
   width="100%"
   height="100%"
   sodipodi:docname="tixati.svg">
  <metadata
     id="metadata65">
    <rdf:RDF>
      <cc:Work
         rdf:about="">
        <dc:format>image/svg+xml</dc:format>
        <dc:type
           rdf:resource="http://purl.org/dc/dcmitype/StillImage" />
      </cc:Work>
    </rdf:RDF>
  </metadata>
  <sodipodi:namedview
     pagecolor="#ffffff"
     bordercolor="#666666"
     borderopacity="1"
     objecttolerance="10"
     gridtolerance="10"
     guidetolerance="10"
     inkscape:pageopacity="0"
     inkscape:pageshadow="2"
     inkscape:window-width="1366"
     inkscape:window-height="713"
     id="namedview63"
     showgrid="false"
     inkscape:zoom="11.313708"
     inkscape:cx="19.334726"
     inkscape:cy="16.852016"
     inkscape:window-x="0"
     inkscape:window-y="28"
     inkscape:window-maximized="1"
     inkscape:current-layer="svg2">
    <inkscape:grid
       type="xygrid"
       id="grid3007" />
  </sodipodi:namedview>
  <defs
     id="defs4">
    <linearGradient
       id="linearGradient3764"
       x1="1"
       x2="47"
       gradientUnits="userSpaceOnUse"
       gradientTransform="matrix(0,-1,1,0,-1.5e-6,47.999998)">
      <stop
         stop-color="#e4e4e4"
         stop-opacity="1"
         id="stop7" />
      <stop
         offset="1"
         stop-color="#eee"
         stop-opacity="1"
         id="stop9" />
    </linearGradient>
  </defs>
  <g
     id="g21">
    <path
       d="m 36.31 5 c 5.859 4.062 9.688 10.831 9.688 18.5 c 0 12.426 -10.07 22.5 -22.5 22.5 c -7.669 0 -14.438 -3.828 -18.5 -9.688 c 1.037 1.822 2.306 3.499 3.781 4.969 c 4.085 3.712 9.514 5.969 15.469 5.969 c 12.703 0 23 -10.298 23 -23 c 0 -5.954 -2.256 -11.384 -5.969 -15.469 c -1.469 -1.475 -3.147 -2.744 -4.969 -3.781 z m 4.969 3.781 c 3.854 4.113 6.219 9.637 6.219 15.719 c 0 12.703 -10.297 23 -23 23 c -6.081 0 -11.606 -2.364 -15.719 -6.219 c 4.16 4.144 9.883 6.719 16.219 6.719 c 12.703 0 23 -10.298 23 -23 c 0 -6.335 -2.575 -12.06 -6.719 -16.219 z"
       opacity="0.05"
       id="path23" />
    <path
       d="m 41.28 8.781 c 3.712 4.085 5.969 9.514 5.969 15.469 c 0 12.703 -10.297 23 -23 23 c -5.954 0 -11.384 -2.256 -15.469 -5.969 c 4.113 3.854 9.637 6.219 15.719 6.219 c 12.703 0 23 -10.298 23 -23 c 0 -6.081 -2.364 -11.606 -6.219 -15.719 z"
       opacity="0.1"
       id="path25" />
    <path
       d="m 31.25 2.375 c 8.615 3.154 14.75 11.417 14.75 21.13 c 0 12.426 -10.07 22.5 -22.5 22.5 c -9.708 0 -17.971 -6.135 -21.12 -14.75 a 23 23 0 0 0 44.875 -7 a 23 23 0 0 0 -16 -21.875 z"
       opacity="0.2"
       id="path27" />
  </g>
  <g
     id="g33" />
  <g
     id="g59">
    <path
       d="m 40.03 7.531 c 3.712 4.084 5.969 9.514 5.969 15.469 0 12.703 -10.297 23 -23 23 c -5.954 0 -11.384 -2.256 -15.469 -5.969 4.178 4.291 10.01 6.969 16.469 6.969 c 12.703 0 23 -10.298 23 -23 0 -6.462 -2.677 -12.291 -6.969 -16.469 z"
       opacity="0.1"
       id="path61" />
  </g>
  <g
     id="g29">
    <path
       d="m 24 1 c 12.703 0 23 10.297 23 23 c 0 12.703 -10.297 23 -23 23 -12.703 0 -23 -10.297 -23 -23 0 -12.703 10.297 -23 23 -23 z"
       id="path31"
       fill-opacity="1"
       fill="url(#linearGradient3764)" />
  </g>
  <path
     style="fill:#000000;fill-opacity:0.09803922;stroke:none"
     d="M 13,12.96875 13,15 l 10,0 -7.845703,19.867188 0.277344,0.08398 -0.644532,0.732422 1.285157,1.085937 L 24,28.109375 24,37 26,37 26,25.923828 28.630859,23.050781 33.925781,35.230469 35.53125,34.6875 29.892578,21.673828 36,15 l 1,0 0,-2.03125 -24,0 z M 27,15 33,15 28.978516,19.566406 27,15 Z m -3,2 0,8.220703 -5.578125,6.335938 L 24,17 Z m 2,0 1.732422,3.982422 L 26,22.949219 26,17 Z"
     id="path3355"
     inkscape:connector-curvature="0" />
  <path
     inkscape:connector-curvature="0"
     id="path3893"
     d="M 14.153496,33.86813 22,14 26,14 34.531328,33.686998 32.924967,34.230394 25,16 23,16 15.943441,34.411526 z"
     style="fill:#c9371b;fill-opacity:1;stroke:none"
     sodipodi:nodetypes="ccccccccc" />
  <path
     inkscape:connector-curvature="0"
     id="path3891"
     d="M 13.786328,34.683225 15.071416,35.770017 35,14 32,14 z"
     style="fill:#4dcb32;fill-opacity:1;stroke:none"
     sodipodi:nodetypes="ccccc" />
  <path
     inkscape:connector-curvature="0"
     id="path3889"
     d="M 33.705199,35.543602 34.944393,34.411526 16,14 13,14 z"
     style="fill:#4dcb32;fill-opacity:1;stroke:none"
     sodipodi:nodetypes="ccccc" />
  <path
     style="opacity:1;fill:#1d8af3;fill-opacity:1;fill-rule:nonzero;stroke:none"
     d="M 12 11.96875 L 12 14 L 23 14 L 23 36 L 25 36 L 25 14 L 36 14 L 36 11.96875 L 12 11.96875 z "
     id="rect3009" />
</svg>

<svg xmlns="http://www.w3.org/2000/svg" viewBox="0 0 48 48"><defs><linearGradient id="linearGradient3764" x1="1" x2="47" gradientUnits="userSpaceOnUse" gradientTransform="matrix(0,-1,1,0,-1.5e-6,47.999998)"><stop stop-color="#e4e4e4" stop-opacity="1"/><stop offset="1" stop-color="#eee" stop-opacity="1"/></linearGradient></defs><g><path d="m 36.31 5 c 5.859 4.062 9.688 10.831 9.688 18.5 c 0 12.426 -10.07 22.5 -22.5 22.5 c -7.669 0 -14.438 -3.828 -18.5 -9.688 c 1.037 1.822 2.306 3.499 3.781 4.969 c 4.085 3.712 9.514 5.969 15.469 5.969 c 12.703 0 23 -10.298 23 -23 c 0 -5.954 -2.256 -11.384 -5.969 -15.469 c -1.469 -1.475 -3.147 -2.744 -4.969 -3.781 z m 4.969 3.781 c 3.854 4.113 6.219 9.637 6.219 15.719 c 0 12.703 -10.297 23 -23 23 c -6.081 0 -11.606 -2.364 -15.719 -6.219 c 4.16 4.144 9.883 6.719 16.219 6.719 c 12.703 0 23 -10.298 23 -23 c 0 -6.335 -2.575 -12.06 -6.719 -16.219 z" opacity="0.05"/><path d="m 41.28 8.781 c 3.712 4.085 5.969 9.514 5.969 15.469 c 0 12.703 -10.297 23 -23 23 c -5.954 0 -11.384 -2.256 -15.469 -5.969 c 4.113 3.854 9.637 6.219 15.719 6.219 c 12.703 0 23 -10.298 23 -23 c 0 -6.081 -2.364 -11.606 -6.219 -15.719 z" opacity="0.1"/><path d="m 31.25 2.375 c 8.615 3.154 14.75 11.417 14.75 21.13 c 0 12.426 -10.07 22.5 -22.5 22.5 c -9.708 0 -17.971 -6.135 -21.12 -14.75 a 23 23 0 0 0 44.875 -7 a 23 23 0 0 0 -16 -21.875 z" opacity="0.2"/></g><g><path d="m 40.03 7.531 c 3.712 4.084 5.969 9.514 5.969 15.469 0 12.703 -10.297 23 -23 23 c -5.954 0 -11.384 -2.256 -15.469 -5.969 4.178 4.291 10.01 6.969 16.469 6.969 c 12.703 0 23 -10.298 23 -23 0 -6.462 -2.677 -12.291 -6.969 -16.469 z" opacity="0.1"/></g><g><path d="m 24 1 c 12.703 0 23 10.297 23 23 c 0 12.703 -10.297 23 -23 23 -12.703 0 -23 -10.297 -23 -23 0 -12.703 10.297 -23 23 -23 z" fill-opacity="1" fill="url(#linearGradient3764)"/></g><path d="m 13 12.969 0 2.031 l 10 0 -7.846 19.867 0.277 0.084 -0.645 0.732 1.285 1.086 l 7.928 -8.66 0 8.891 2 0 0 -11.08 2.631 -2.873 5.295 12.18 1.605 -0.543 -5.639 -13.01 6.107 -6.674 l 1 0 0 -2.031 -24 0 z m 14 2.031 6 0 -4.02 4.566 -1.979 -4.566 m -3 2 0 8.221 -5.578 6.336 l 5.578 -14.557 m 2 0 1.732 3.982 l -1.732 1.967 0 -5.949" fill="#000" stroke="none" fill-opacity="0.098"/><path d="m 14.15 33.868 7.847 -19.868 4 0 8.531 19.687 -1.606 0.543 -7.925 -18.23 -2 0 -7.06 18.412 z" fill="#c9371b" stroke="none" fill-opacity="1"/><path d="m 13.786 34.683 1.285 1.087 19.929 -21.77 -3 0 z" fill="#4dcb32" stroke="none" fill-opacity="1"/><path d="m 33.705 35.544 1.239 -1.132 -18.944 -20.412 -3 0 z" fill="#4dcb32" stroke="none" fill-opacity="1"/><path d="m 12 11.969 l 0 2.031 l 11 0 l 0 22 l 2 0 l 0 -22 l 11 0 l 0 -2.031 l -24 0 z" opacity="1" fill="#1d8af3" fill-rule="nonzero" stroke="none" fill-opacity="1"/></svg>
